src/pos-icons/alpha-b-box.svg

<svg height="24" viewBox="0 0 24 24" width="24" xmlns="http://www.w3.org/2000/svg"><path d="m5 3h14a2 2 0 0 1 2 2v14a2 2 0 0 1 -2 2h-14a2 2 0 0 1 -2-2v-14a2 2 0 0 1 2-2m10 7.5v-1.5a2 2 0 0 0 -2-2h-4v10h4a2 2 0 0 0 2-2v-1.5c0-.8-.7-1.5-1.5-1.5.8 0 1.5-.7 1.5-1.5m-2 4.5h-2v-2h2zm0-4h-2v-2h2z"/></svg>

<?xml version="1.0" encoding="UTF-8"?><!DOCTYPE svg PUBLIC "-//W3C//DTD SVG 1.1//EN" "http://www.w3.org/Graphics/SVG/1.1/DTD/svg11.dtd"><svg xmlns="http://www.w3.org/2000/svg" xmlns:xlink="http://www.w3.org/1999/xlink" version="1.1" id="mdi-alpha-b-box" width="24" height="24" viewBox="0 0 24 24"><path d="M5,3H19A2,2 0 0,1 21,5V19A2,2 0 0,1 19,21H5A2,2 0 0,1 3,19V5A2,2 0 0,1 5,3M15,10.5V9A2,2 0 0,0 13,7H9V17H13A2,2 0 0,0 15,15V13.5C15,12.7 14.3,12 13.5,12C14.3,12 15,11.3 15,10.5M13,15H11V13H13V15M13,11H11V9H13V11Z" /></svg>
